client/src/assets/mylogo.svg

<?xml version="1.0" encoding="UTF-8" standalone="no"?>
<!DOCTYPE svg PUBLIC "-//W3C//DTD SVG 1.1//EN" "http://www.w3.org/Graphics/SVG/1.1/DTD/svg11.dtd">
<!-- Created with Vectornator (http://vectornator.io/) -->
<svg height="100%" stroke-miterlimit="10" style="fill-rule:nonzero;clip-rule:evenodd;stroke-linecap:round;stroke-linejoin:round;" version="1.1" viewBox="0 0 24 24" width="100%" xml:space="preserve" xmlns="http://www.w3.org/2000/svg" xmlns:xlink="http://www.w3.org/1999/xlink">
<defs/>
<g id="Untitled">
<path d="M21 16.5C20.999 16.8686 20.7953 17.2068 20.47 17.38L12.57 21.82C12.2272 22.0578 11.7728 22.0578 11.43 21.82L3.53 17.38C3.20465 17.2068 3.00098 16.8686 3 16.5L3 7.5C3.00098 7.13141 3.20465 6.79324 3.53 6.62L11.43 2.18C11.7728 1.94219 12.2272 1.94219 12.57 2.18L20.47 6.62C20.7953 6.79324 20.999 7.13141 21 7.5L21 16.5M12 4.15L5 8.09L5 15.91L12 19.85L19 15.91L19 8.09L12 4.15M12 6.23L16.9 9.06L12 11.89L7.1 9.06L12 6.23M17 14.89L13 17.2L13 13.62L17 11.31L17 14.89M11 17.2L7 14.89L7 11.31L11 13.62L11 17.2Z" fill="#9bfb97" fill-rule="nonzero" opacity="1" stroke="none"/>
</g>
</svg>

<?xml version="1.0" encoding="utf-8"?><!-- Uploaded to: SVG Repo, www.svgrepo.com, Generator: SVG Repo Mixer Tools -->
<svg width="40px" height="40px" viewBox="0 0 24 24" xmlns="http://www.w3.org/2000/svg">
  <title>webpack</title>
  <rect width="24" height="24" fill="none"/>
  <path d="M21,16.5a1,1,0,0,1-.53.88l-7.9,4.44a1,1,0,0,1-1.14,0l-7.9-4.44A1,1,0,0,1,3,16.5v-9a1,1,0,0,1,.53-.88l7.9-4.44a1,1,0,0,1,1.14,0l7.9,4.44A1,1,0,0,1,21,7.5v9M12,4.15,5,8.09v7.82l7,3.94,7-3.94V8.09L12,4.15m0,2.08,4.9,2.83L12,11.89,7.1,9.06,12,6.23m5,8.66L13,17.2V13.62l4-2.31v3.58M11,17.2,7,14.89V11.31l4,2.31Z"/>
</svg>
